src/assets/img/full_logo_horizontal.svg

<svg fill="none" height="80" viewBox="0 0 300 80" width="300" xmlns="http://www.w3.org/2000/svg" xmlns:xlink="http://www.w3.org/1999/xlink"><linearGradient id="a" gradientUnits="userSpaceOnUse" x1="11.8936" x2="82.5557" y1="68.5632" y2="-2.09887"><stop offset="0" stop-color="#5565f7"/><stop offset="1" stop-color="#9ea7fa"/></linearGradient><clipPath id="b"><path d="m0 0h300v80h-300z"/></clipPath><g clip-path="url(#b)"><g fill="#fff"><path d="m116.196 39.6408-16.196 23.5755h7.51l12.67-18.6775c1.567 2.7428 3.33 5.6163 5.159 8.2939l7.249 10.3836h7.575l-16-23.6408 15.804-23.5755h-7.379l-12.474 18.8082c-1.371-2.6123-2.938-5.2245-5.028-8.2939l-7.38-10.5143h-7.641z"/><path d="m154.146 63.2163h6.074l13.322-31.9347h-6.4l-7.118 17.8286c-1.11 2.8082-2.155 5.551-2.678 7.6408-.522-1.9592-1.436-4.6367-2.547-7.6408l-6.987-17.8286h-6.531z"/><path d="m192.045 64c7.902 0 13.258-3.8531 14.825-10.7102h-5.747c-1.045 3.6571-4.18 5.6163-8.947 5.6163-6.073 0-9.6-3.7224-10.057-10.449l24.686-.0653v-2.2857c0-9.4694-5.943-15.7388-15.021-15.7388-9.273 0-15.608 6.9225-15.608 16.9143 0 9.9266 6.465 16.7184 15.869 16.7184zm-.261-28.4735c5.421 0 8.882 3.5266 8.882 8.8164h-18.417c.784-5.6164 4.18-8.8164 9.535-8.8164z"/><path d="m233.253 31.0204c-1.241-.2612-2.155-.3918-3.265-.3918-4.376 0-7.576 2.2204-8.882 5.551l-.392-4.8327h-5.747v31.8694h6.139v-16.9143c0-6.1387 3.592-9.6653 9.404-9.6653h2.743z"/><path d="m237.705 53.9429c0 6.0734 4.767 10.0571 12.277 10.0571 7.576 0 12.8-3.8531 12.8-9.9265 0-4.7674-2.677-7.249-8.098-8.5551l-5.616-1.3715c-3.135-.7836-4.702-2.2204-4.702-4.3755 0-2.9387 2.155-4.6367 6.008-4.6367 3.722 0 5.878 2.0245 6.008 5.2245h5.878c-.131-6.0735-4.702-9.9919-11.69-9.9919-7.053 0-12.016 3.7225-12.016 9.6 0 4.7021 2.677 7.5103 8.359 8.8817l5.616 1.3061c3.331.849 4.376 2.1551 4.376 4.3102 0 2.9388-2.482 4.702-6.792 4.702-4.049 0-6.531-1.9591-6.531-5.2244z"/><path d="m284.675 64c7.903 0 13.258-3.8531 14.825-10.7102h-5.747c-1.045 3.6571-4.18 5.6163-8.947 5.6163-6.073 0-9.6-3.7224-10.057-10.449l24.686-.0653v-2.2857c0-9.4694-5.943-15.7388-15.021-15.7388-9.273 0-15.608 6.9225-15.608 16.9143 0 9.9266 6.465 16.7184 15.869 16.7184zm-.261-28.4735c5.421 0 8.882 3.5266 8.882 8.8164h-18.416c.783-5.6164 4.179-8.8164 9.534-8.8164z"/></g><path clip-rule="evenodd" d="m13.1645 10.3364c15.2094-13.78198 38.4621-13.78188 53.6714.0004l-3.5456 3.5455c-13.2461-11.83346-33.334-11.83356-46.5802-.0003zm56.4997 2.8288-3.5455 3.5456c11.8324 13.2461 11.8322 33.3333-.0007 46.5791l3.5456 3.5456c13.7817-15.2091 13.7819-38.461.0006-53.6703zm-52.9534 52.9534c13.246 11.8324 33.3329 11.8323 46.5788-.0003l3.5456 3.5456c-15.2091 13.7814-38.4608 13.7815-53.67.0003zm-2.8285-2.8283-3.5456 3.5456c-13.78206-15.2092-13.78228-38.4616-.0006-53.671l3.5456 3.5456c-11.83296 13.2462-11.83274 33.3338.0006 46.5798zm51.0458-39.9919c-1.0691-1.5917-2.3071-3.1037-3.7141-4.5107-9.3205-9.32047-23.248-11.22602-34.4523-5.7166l2.511 4.349c9.2815-4.4094 20.7192-2.7733 28.4007 4.9082 1.0903 1.0903 2.0589 2.2563 2.9056 3.4811zm-2.3468 5.9737 4.349-2.5109c5.5098 11.2044 3.6044 25.1323-5.7163 34.4529-1.4073 1.4073-2.9196 2.6455-4.5116 3.7147l-2.511-4.3491c1.2251-.8468 2.3914-1.8156 3.482-2.9062 7.6817-7.6817 9.3177-19.1197 4.9079-28.4014zm-11.8527 33.3098c-9.2815 4.4092-20.719 2.7731-28.4004-4.9084-1.0909-1.0909-2.0599-2.2575-2.9069-3.483l-4.3491 2.5109c1.0694 1.5925 2.3078 3.1051 3.7154 4.5127 9.3204 9.3204 23.2477 11.226 34.4519 5.7168zm-37.6584-9.3434 4.3491-2.511c-4.4085-9.2812-2.7722-20.7181 4.9089-28.3992 1.0905-1.0905 2.2567-2.0592 3.4816-2.906l-2.5109-4.349c-1.592 1.0691-3.1041 2.3072-4.5113 3.7144-9.32007 9.3201-11.22586 23.2468-5.7174 34.4508zm41.0721-27.3808c2.953 2.953 4.7895 6.5997 5.5096 10.4155l-5.0217.4394c-.5996-2.6805-1.9425-5.2283-4.0285-7.3144-2.7502-2.7502-6.3031-4.2086-9.9045-4.3752l-.4394-5.0215c5.0323.0644 10.0448 2.0165 13.8845 5.8562zm-17.8694-5.5095c-3.8156.7201-7.462 2.5566-10.4149 5.5095-3.8395 3.8395-5.7916 8.8517-5.8562 13.8836l5.0216-.4393c.1668-3.6012 1.6252-7.1537 4.3752-9.9038 2.0858-2.0858 4.6334-3.4286 7.3136-4.0283zm-15.9245 23.3781c.72 3.8159 2.5566 7.4626 5.5096 10.4156 3.8395 3.8395 8.8516 5.7916 13.8835 5.8562l-.4393-5.0216c-3.6012-.1668-7.1536-1.6252-9.9036-4.3751-2.086-2.0861-3.4289-4.6339-4.0285-7.3145zm33.7939 10.4156c-2.9531 2.9531-6.5999 4.7897-10.4158 5.5097l-.4394-5.0217c2.6807-.5996 5.2285-1.9425 7.3146-4.0285 2.7501-2.7501 4.2084-6.3026 4.3752-9.9039l5.0216-.4393c-.0646 5.032-2.0167 10.0442-5.8562 13.8837z" fill="url(#a)" fill-rule="evenodd"/></g></svg>

<svg width="300" height="80" viewBox="0 0 300 80" fill="none" xmlns="http://www.w3.org/2000/svg">
<g clip-path="url(#clip0_385_2346)">
<path d="M116.196 39.6408L100 63.2163H107.51L120.18 44.5388C121.747 47.2816 123.51 50.1551 125.339 52.8327L132.588 63.2163H140.163L124.163 39.5755L139.967 16H132.588L120.114 34.8082C118.743 32.1959 117.176 29.5837 115.086 26.5143L107.706 16H100.065L116.196 39.6408Z" fill="white"/>
<path d="M154.146 63.2163H160.22L173.542 31.2816H167.142L160.024 49.1102C158.914 51.9184 157.869 54.6612 157.346 56.751C156.824 54.7918 155.91 52.1143 154.799 49.1102L147.812 31.2816H141.281L154.146 63.2163Z" fill="white"/>
<path d="M192.045 64C199.947 64 205.303 60.1469 206.87 53.2898H201.123C200.078 56.9469 196.943 58.9061 192.176 58.9061C186.103 58.9061 182.576 55.1837 182.119 48.4571L206.805 48.3918V46.1061C206.805 36.6367 200.862 30.3673 191.784 30.3673C182.511 30.3673 176.176 37.2898 176.176 47.2816C176.176 57.2082 182.641 64 192.045 64ZM191.784 35.5265C197.205 35.5265 200.666 39.0531 200.666 44.3429H182.249C183.033 38.7265 186.429 35.5265 191.784 35.5265Z" fill="white"/>
<path d="M233.253 31.0204C232.012 30.7592 231.098 30.6286 229.988 30.6286C225.612 30.6286 222.412 32.849 221.106 36.1796L220.714 31.3469H214.967V63.2163H221.106V46.302C221.106 40.1633 224.698 36.6367 230.51 36.6367H233.253V31.0204Z" fill="white"/>
<path d="M237.705 53.9429C237.705 60.0163 242.472 64 249.982 64C257.558 64 262.782 60.1469 262.782 54.0735C262.782 49.3061 260.105 46.8245 254.684 45.5184L249.068 44.1469C245.933 43.3633 244.366 41.9265 244.366 39.7714C244.366 36.8327 246.521 35.1347 250.374 35.1347C254.096 35.1347 256.252 37.1592 256.382 40.3592H262.26C262.129 34.2857 257.558 30.3673 250.57 30.3673C243.517 30.3673 238.554 34.0898 238.554 39.9673C238.554 44.6694 241.231 47.4776 246.913 48.849L252.529 50.1551C255.86 51.0041 256.905 52.3102 256.905 54.4653C256.905 57.4041 254.423 59.1673 250.113 59.1673C246.064 59.1673 243.582 57.2082 243.582 53.9429H237.705Z" fill="white"/>
<path d="M284.675 64C292.578 64 297.933 60.1469 299.5 53.2898H293.753C292.708 56.9469 289.573 58.9061 284.806 58.9061C278.733 58.9061 275.206 55.1837 274.749 48.4571L299.435 48.3918V46.1061C299.435 36.6367 293.492 30.3673 284.414 30.3673C275.141 30.3673 268.806 37.2898 268.806 47.2816C268.806 57.2082 275.271 64 284.675 64ZM284.414 35.5265C289.835 35.5265 293.296 39.0531 293.296 44.3429H274.88C275.663 38.7265 279.059 35.5265 284.414 35.5265Z" fill="white"/>
<path fill-rule="evenodd" clip-rule="evenodd" d="M13.1645 10.3364C28.3739 -3.44558 51.6266 -3.44548 66.8359 10.3368L63.2903 13.8823C50.0442 2.04884 29.9563 2.04874 16.7101 13.882L13.1645 10.3364ZM69.6642 13.1652L66.1187 16.7108C77.9511 29.9569 77.9509 50.0441 66.118 63.2899L69.6636 66.8355C83.4453 51.6264 83.4455 28.3745 69.6642 13.1652ZM16.7108 66.1186C29.9568 77.951 50.0437 77.9509 63.2896 66.1183L66.8352 69.6639C51.6261 83.4453 28.3744 83.4454 13.1652 69.6642L16.7108 66.1186ZM13.8823 63.2903L10.3367 66.8359C-3.44536 51.6267 -3.44558 28.3743 10.3361 13.1649L13.8817 16.7105C2.04874 29.9567 2.04896 50.0443 13.8823 63.2903ZM64.9281 23.2984C63.859 21.7067 62.621 20.1947 61.214 18.7877C51.8935 9.46723 37.966 7.56168 26.7617 13.0711L29.2727 17.4201C38.5542 13.0107 49.9919 14.6468 57.6734 22.3283C58.7637 23.4186 59.7323 24.5846 60.579 25.8094L64.9281 23.2984ZM62.5813 29.2721L66.9303 26.7612C72.4401 37.9656 70.5347 51.8935 61.214 61.2141C59.8067 62.6214 58.2944 63.8596 56.7024 64.9288L54.1914 60.5797C55.4165 59.7329 56.5828 58.7641 57.6734 57.6735C65.3551 49.9918 66.9911 38.5538 62.5813 29.2721ZM50.7286 62.5819C41.4471 66.9911 30.0096 65.355 22.3282 57.6735C21.2373 56.5826 20.2683 55.416 19.4213 54.1905L15.0722 56.7014C16.1416 58.2939 17.38 59.8065 18.7876 61.2141C28.108 70.5345 42.0353 72.4401 53.2395 66.9309L50.7286 62.5819ZM13.0702 53.2385L17.4193 50.7275C13.0108 41.4463 14.6471 30.0094 22.3282 22.3283C23.4187 21.2378 24.5849 20.2691 25.8098 19.4223L23.2989 15.0733C21.7069 16.1424 20.1948 17.3805 18.7876 18.7877C9.46753 28.1078 7.56174 42.0345 13.0702 53.2385ZM54.1423 25.8577C57.0953 28.8107 58.9318 32.4574 59.6519 36.2732L54.6302 36.7126C54.0306 34.0321 52.6877 31.4843 50.6017 29.3982C47.8515 26.648 44.2986 25.1896 40.6972 25.023L40.2578 20.0015C45.2901 20.0659 50.3026 22.018 54.1423 25.8577ZM36.2729 20.3482C32.4573 21.0683 28.8109 22.9048 25.858 25.8577C22.0185 29.6972 20.0664 34.7094 20.0018 39.7413L25.0234 39.302C25.1902 35.7008 26.6486 32.1483 29.3986 29.3982C31.4844 27.3124 34.032 25.9696 36.7122 25.3699L36.2729 20.3482ZM20.3484 43.7263C21.0684 47.5422 22.905 51.1889 25.858 54.1419C29.6975 57.9814 34.7096 59.9335 39.7415 59.9981L39.3022 54.9765C35.701 54.8097 32.1486 53.3513 29.3986 50.6014C27.3126 48.5153 25.9697 45.9675 25.3701 43.2869L20.3484 43.7263ZM54.1423 54.1419C51.1892 57.095 47.5424 58.9316 43.7265 59.6516L43.2871 54.6299C45.9678 54.0303 48.5156 52.6874 50.6017 50.6014C53.3518 47.8513 54.8101 44.2988 54.9769 40.6975L59.9985 40.2582C59.9339 45.2902 57.9818 50.3024 54.1423 54.1419Z" fill="url(#paint0_linear_385_2346)"/>
</g>
<defs>
<linearGradient id="paint0_linear_385_2346" x1="11.8936" y1="68.5632" x2="82.5557" y2="-2.09887" gradientUnits="userSpaceOnUse">
<stop stop-color="#5565F7"/>
<stop offset="1" stop-color="#9EA7FA"/>
</linearGradient>
<clipPath id="clip0_385_2346">
<rect width="300" height="80" fill="white"/>
</clipPath>
</defs>
</svg>
